X: 0
T: Wha' Sae the 42nd
T: What Saw the 42nd
P: piffero primo a0769
O: cfd bk1
F: http://ancients.sudburymuster.org/mus/med/pdf/fortyseclakesC0.pdf
Z: 2020 John Chambers <jc:trillian.mit.edu>
M: 2/4
L: 1/16
K: G
z2 |\
G4 G3A | (3BcBA2 B2d2 | G4 G3e | d2B2 A4 |\
G4 G3A | (3BcBA2 B2d2 | e2g2 d2B2 | (A2BA) G2 :|
|: z2 |\
B2d2 d2ef | g2d2 e2d2 | B2d2 d2ef | g2B2 A4 |\
B2d2 d2ef | g2d2 e2d2 | d2ef g2d2 | (B2cB) A2 :|


